X:1
T:Milinda
T:Isaac Watts, 1707 Hymn 24, Book 1                 88. 88. (L. M.) 
T:Transcribed from Kentucky Harmony, 1817.
T:E minor                       Robert Boyd, 1816 
%%score [ 1 2 3 4 ]
L:1/8
Q:1/4=115
M:4/4
K:G
V:1 treble nm="Tr." snm="Tr."
V:2 treble nm="C." snm="C."
V:3 treble-8 nm="T." snm="T."
V:4 bass nm="B." snm="B."
V:1
 z4"^In   vain  the  wealthy  mortals     toil,     And  heap their shining dust in vain,\nLook down and scorn the humble poor, And  boast  their  lofty  hills  of  gain. \n""^1. {" B4 | %1
 B2 e2 e2 dB | A2 Bc d3 A | B3 c d2 de | %4
 B2 B2"^Their  golden   cordials      cannot     ease  Their pain–ed  hearts  or  aching  heads,\n""^}" B4 :| %5
 z4 B4 | d2 d2 B3 A | GB AG F3 F | G2 A2 B2 BG | A2 GA B4 | %10
"^Nor  fright  nor  bribe  approaching  death  From  glittering  roofs        and  downy   beds.\n" B4 d3 B | %11
 e3 f dB A2 | f3 e dc BA | B>cB A B2 B2 | B8 |] %15
V:2
 z4 E4 | G2 G2 E2 DE | FG AF D3 D | E3 F D2 DB, | E2 E2 E4 :| z4 G4 | G2 GA B3 A | G2 E2 F3 F | %8
 B2 E2 E2 DB, | D2 GF E4 | G4 F3 E | A3 B G2 AG | F3 G A2 GF | E3 F D2 B,2 | E8 |] %15
V:3
 z4"^The  lingering,  the  un–wil–ling  soul   The  dismal  summons  must  obey,  \nAnd  bid  a  long,  a    sad       farewell    To   the  pale lump  of lifeless  clay.\n""^2. {" G4 | %1
 B2 E2 E2 FG | AG FE D3 d | B3 F G2 FE | B2 E2"^}" E4 :| %5
 z4"^Thence they are huddled to the grave,  Where kings and slaves have equal thrones;\n" E4 | %6
 D2 D2 d3 e | dB AF A3 A | B2 e2 e2 de | fe dc B4 | %10
"^Their  bones  without  dis–tinc–tion  lie   A – mong   the       heap         of  meaner  bones.\n" d4 f3 g | %11
 e3 f dB AF | d3 e fe dc | B>cd F B2 E2 | E8 |] %15
V:4
 z4 E,4 | E,2 E,2 E,2 B,,2 | A,,2 B,,C, D,3 D, | E,3 F, G,2 D,2 | B,,2 E,2 E,4 :| z4 E,4 | %6
 D,2 D,2 G,3 F, | G,B, A,F, D,3 D, | E,2 B,,2 E,2 G,2 | D,2 D,E, B,,4 | %10
"^__________________________________________________________\nEdited by B. C. Johnston, 2019\nCounter\n originally scored in Bass clef; transferred to Treble clef.\n" G,4 F,3 G, | %11
 A,3 B, B,2 A,F, | D,3 G, F,2 G,2 | E,3 D, B,,2 E,2 | %14
"^___________________________________________________________________________\nA folk hymn (Jackson 1953a, no. 83), based on a seventeenth-century\nEnglish song. This tune was reprinted (in all four parts) in \nSouthern Harmony\n, 1835, p. 89,\ntitled \nMelinda\n. It was re-arranged by William Hauser in his \nHesperian Harp\n, 1848, p. 22.\n" E,8 |] %15

